!! Orlando di Lasso, "Fulgebunt justi sicut lilium" 2-part polyphony; alla breve
!! No. 11 from "Examples of Gregorian Chant & Works ...", compiled
!! by Gustave Soderlund, Appleton-Century-Crofts (New York), 1937; pp. 18-19
**kern	**kern
*M4/2	*M4/2
=1	=1
0r	1d
.	2B
.	2B
=2	=2
1G	4d
.	4c
.	4B
.	4A
2E	4G
.	4A
2E	4B
.	4c
=3	=3
4G	1B
4F	.
4E	.
4D	.
4C	2E
4D	.
4E	[2c
4F	.
=4	=4
1E	2c]
.	2B
2AA	2c
[2C	2c
=5	=5
2C]	0G
2BB	.
2C	.
2C	.
=6	=6
0GG	2r
.	2d
.	2B
.	2B
=7	=7
2r	4G
.	4F
2G	4E
.	4D
2E	2.C
2E	.
.	4D
=8	=8
4G	4E
4F	4F
4E	2.G
4D	.
2.C	.
.	4E
.	[2e
4D	.
=9	=9
4E	4e]
4F	8d
.	8c
2.G	4B
.	4c
8F	1d
8E	.
4D	.
4E	.
=10	=10
4F	2A
4D	.
4E	1c
4F	.
1D	.
.	2B
=11	=11
2AA	2c
1C	2c
.	1G
2BB	.
=12	=12
2C	2r
2C	2G
1GG	2B
.	2B
=13	=13
2r	2.e
2C	.
.	4d
2E	2c
2E	2B
=14	=14
2.A	2r
.	2c
4G	.
2F	2.c
2E	.
.	4c
=15	=15
2r	1A
2F	.
2.F	2r
.	2D
4F	.
=16	=16
1D	4F
.	4G
.	4A
.	4B
2r	1c
2AA	.
=17	=17
4C	1G
4D	.
4E	.
4F	.
1G	2r
.	2d
=18	=18
1GG	4B
.	4A
.	4G
.	4F
2r	1E
2AA	.
=19	=19
4FF	1A
4GG	.
4AA	.
4BB	.
[1C	2r
.	2E
=20	=20
2C]	4G
.	4A
2GG	4B
.	4c
2r	1d
2G	.
=21	=21
4E	1G
4D	.
4C	.
4BB	.
1AA	2r
.	[2c
=22	=22
1E	4c]
.	8B
.	8A
.	4G
.	4A
2r	1B
[2E	.
=23	=23
4E]	2c
8D	.
8C	.
4BB	2.d
4C	.
1D	.
.	8c
.	8B
.	4A
.	4B
=24	=24
2AA	2.c
2.A	.
.	4d
.	2e
8G	.
8F	.
4E	2c
4F	.
=25	=25
2G	1B
2E	.
2.A	2r
.	[2c
8G	.
8F	.
=26	=26
1E	4c]
.	8B
.	8A
.	4G
.	4A
2r	2B
[2C	4E
.	4F
=27	=27
4C]	4G
8BB	4A
8AA	.
4GG	4B
4AA	4c
2BB	2d
2C	[2G
=28	=28
2.D	4G]
.	4F
.	4F
8C	8E
8BB	8D
4AA	2F
4BB	.
[2C	2E
=29	=29
4C]	1G
4D	.
4E	.
4F	.
2G	2r
2F	[2c
=30	=30
1E	4c]
.	8B
.	8A
.	4G
.	4A
2r	2B
[2A	2c
=31	=31
4A]	2.e
8G	.
8F	.
4E	.
4F	8d
.	8c
2.G	4B
.	4c
.	[2d
8F	.
8E	.
=32	=32
4D	4d]
4E	8c
.	8B
1F	4A
.	4B
.	2.c
2E	.
.	4B
=33	=33
4C	4A
4BB	4D
4BB	1G
8AA	.
8GG	.
2.AA	.
.	2F#
4AA	.
=34	=34
2E	[0G
2.C	.
8BB	.
8AA	.
4GG	.
4AA	.
=35	=35
2BB	0G_
2C	.
2E	.
2C	.
=36	=36
0GG;	0G;]
==	==
*-	*-
